assets/images/icons/set2/search.svg

<svg xmlns="http://www.w3.org/2000/svg" width="28" height="28" xmlns:xlink="http://www.w3.org/1999/xlink" id="set2-search">
  <use xlink:href="#a23" transform="translate(6 6)"/>
  <defs>
    <path id="a23" fill-rule="evenodd" d="M15.7353 15.7353c-.3905.3905-1.0237.3905-1.4142 0l-3.1497-3.1498c-2.74152 2.05-6.62963 1.8557-9.12112-.6358-2.733705-2.7336-2.733705-7.1658 0-9.8995 2.7337-2.7336 7.16579-2.7336 9.89952 0 2.4915 2.4915 2.6858 6.3797.6358 9.1211l3.1497 3.1497c.3906.3906.3906 1.0237 0 1.4143zM10.5356 3.46445c-1.95272-1.9526-5.11842-1.9526-7.07112 0-1.9526 1.9527-1.9526 5.1185 0 7.07115 1.9527 1.9525 5.1184 1.9525 7.07112 0 1.9526-1.95265 1.9526-5.11845 0-7.07115z"/>
  </defs>
</svg>

<svg width="28" height="28" viewBox="0 0 28 28" version="1.1" xmlns="http://www.w3.org/2000/svg" xmlns:xlink="http://www.w3.org/1999/xlink">
<title>@$&#9;</title>
<desc>Created using Figma</desc>
<g id="Canvas" transform="translate(-356 -1834)">
<g id="Icon/Misc/Carbon/Search">
<g id="Icon/Misc/Carbon/Search">
<g id="search 3">
<use xlink:href="#path0_fill" transform="translate(362 1840)" fill="#202A37"/>
</g>
</g>
</g>
</g>
<defs>
<path id="path0_fill" fill-rule="evenodd" d="M 15.7353 15.7353C 15.3448 16.1258 14.7116 16.1258 14.3211 15.7353L 11.1714 12.5855C 8.42988 14.6355 4.54177 14.4412 2.05028 11.9497C -0.683425 9.2161 -0.683425 4.7839 2.05028 2.0502C 4.78398 -0.6834 9.21607 -0.6834 11.9498 2.0502C 14.4413 4.5417 14.6356 8.4299 12.5856 11.1713L 15.7353 14.321C 16.1259 14.7116 16.1259 15.3447 15.7353 15.7353ZM 10.5356 3.46445C 8.58288 1.51185 5.41718 1.51185 3.46448 3.46445C 1.51188 5.41715 1.51188 8.58295 3.46448 10.5356C 5.41718 12.4881 8.58288 12.4881 10.5356 10.5356C 12.4882 8.58295 12.4882 5.41715 10.5356 3.46445Z"/>
</defs>
</svg>
